X:1
T:Go, Study the Bible
T:William James Kirkpatrick
T:Go, Study the Bible
T:Public Domain
T:Public Domain
T:Public Domain
C:William James Kirkpatrick
Z:Public Domain
%%score ( 1 2 ) ( 3 4 )
L:1/8
M:3/4
K:G
V:1 treble 
V:2 treble 
V:3 bass 
V:4 bass 
V:1
 D2 | [DG]2 [DG]2 [DG]2 | [GB]2 [DA]2 [DG]2 | [Fc]2 [FB]2 [FA]2 | [GB]4 (Bc) | [Dd]2 [DB]2 [DG]2 | %6
w: 1.~Go,|dy the Bi-|ble; God’s Word|is a light|That bright- *|will shine in|
w: 2.~Go,|dy the Bi-|ble; sweet mo-|ments em- ploy|In hear- *|the voice of|
w: 3.~Go,|dy the Bi-|ble; a store-|house com- plete,|A ta- *|our Fa- ther|
w: 4.~Go,|dy the Bi-|ble; the mar-|i- ner’s chart|Will guide *|a- cross the|
 [^CG]2 [CF]2 [CG]2 | [CA]4 [CD]2 | [B,G]2 [DG]2 [DG]2 | [GB]2 [DA]2 G2 | [Fc]2 [Fd]2 [Fe]2 | %11
w: your way; ’Twill|warn you|of dan- gers,|’twill lead you|right, From time|
w: the Lord; In|sor- row,|a com- fort;|in ser- vice,|joy; In bat-|
w: hath spread, Where|wis- dom,|and mer- cy|and love ev-|meet; There ga-|
w: dark wave; But|pre- cious,|more pre- cious|this Book to|heart, It tells|
 [Gd]4 [Gc]2 | [GB]2 [DA]2 [DG]2 | [EA]2 E2 [DF]2 | [DG]6 ||"^Refrain" [GB]3 [GB] [G^A][GB] | %16
w: to e-|ter- ni- ty’s|day. * *|||
w: tle, a|con- quer- ing|sword. Go, stu-|the|Bi- ble! Go, read|
w: ther the|soul’s dai- ly|bread. * *|||
w: us that|Je- sus will|save. * *|||
 [DG]3 D3 | [Fc]3 [Fc] [Fd][Fc] | [GB]3- [GB]2 z | A3 [GA] [GB][G^c] | [Fd]3 [FA]2 [DF] | %21
w: |||||
w: it with|And look for the|trea- *|sures of love hid-|there; Search well|
w: |||||
w: |||||
 [^CA]3 [CG]2 [CE] | D3- D2 z | [DB]3 [GB] [G^A][GB] | [DG]3 D3 | [Fc]3 [Fc] [Fd][Fc] | %26
w: |||||
w: thro’ its pag-|es *|Heav- en’s bright ore,|As years|en on- ward, we’ll|
w: |||||
w: |||||
 [GB]3- [GB]2 z | [Ge]3 [Gc] [GB][GA] | [Gd]3 G2 [Gc] | [GB]3 [FB]2 [FA] | [DG]3- [DG]2 z |] %31
w: |||||
w: prize *|it still more. *||||
w: |||||
w: |||||
V:2
 D2 | x6 | x6 | x6 | x4 D2 | x6 | x6 | x6 | x6 | x4 G2 | x6 | x6 | x6 | x2 E2 x2 | x6 || x6 | %16
w: stu-||||ly|||||a-|||||||
w: stu-||||ing|||||a||||dy|||
w: stu-||||ble|||||er|||||||
w: stu-||||him|||||the|||||||
 x3 D3 | x6 | x6 | A3 x3 | x6 | x6 | D3- D2 x | x6 | x3 D3 | x6 | x6 | x6 | x3 G2 x | x6 | x6 |] %31
w: |||||||||||||||
w: prayer;|||den|||for *||hast-|||||||
w: |||||||||||||||
w: |||||||||||||||
V:3
 D,2 | [G,,B,]2 [G,,B,]2 [G,,B,]2 | [G,D]2 [G,C]2 [G,B,]2 | [D,A,]2 [D,D]2 [D,D]2 | [G,D]4 (G,A,) | %5
 [G,B,]2 G,2 [G,B,]2 | [E,A,]2 [E,A,]2 [E,G,]2 | [D,F,]4 [D,F,]2 | [G,,G,]2 [G,,B,]2 [G,,B,]2 | %9
 [G,D]2 [G,C]2 [G,B,]2 | [D,A,]2 [D,A,]2 [D,C]2 | [G,B,]4 [G,E]2 | [G,D]2 [G,C]2 [G,B,]2 | %13
 [C,C]2 [C,C]2 [D,C]2 | [G,,B,]6 || [G,D]3 [G,D] [G,^C][G,D] | [G,B,]3 [G,B,]3 | %17
 [D,A,]3 [D,A,] [D,A,][D,D] | [G,D]3- [G,D]2 z | [F,D]3 [E,^C] [E,B,][E,A,] | %20
 [D,A,]3 [D,D]2 [D,A,] | [A,,A,]3 [A,,E,]2 [A,,G,] | [D,F,]3- [D,F,]2 z | G,3 [G,D] [G,^C][G,D] | %24
 [G,B,]3 [G,B,]3 | [D,A,]3 [D,A,] [D,A,][D,D] | [G,D]3- [G,D]2 z | [C,C]3 [E,G,] [D,G,][C,G,] | %28
 [B,,G,]3 [C,E]2 [C,E] | [D,D]3 [D,D]2 [D,C] | [G,,B,]3- [G,,B,]2 z |] %31
V:4
 D,2 | x6 | x6 | x6 | x4 G,2 | x2 G,2 x2 | x6 | x6 | x6 | x6 | x6 | x6 | x6 | x6 | x6 || x6 | x6 | %17
 x6 | x6 | x6 | x6 | x6 | x6 | G,3 x3 | x6 | x6 | x6 | x6 | x6 | x6 | x6 |] %31

